src/resources/assets/music.svg

<svg xmlns="http://www.w3.org/2000/svg" width="16" height="16"><path d="M 12 5.210938 L 12 10.265625 C 11.707031 10.097656 11.363281 10 11 10 C 9.894531 10 9 10.894531 9 12 C 9 13.105469 9.894531 14 11 14 C 12.105469 14 13 13.105469 13 12 L 13 1.925781 C 13 1.371094 12.453125 0.984375 11.929688 1.171875 L 5.53125 3.457031 C 5.210938 3.570312 5 3.875 5 4.210938 L 5 11.265625 C 4.707031 11.097656 4.363281 11 4 11 C 2.894531 11 2 11.894531 2 13 C 2 14.105469 2.894531 15 4 15 C 5.105469 15 6 14.105469 6 13 L 6 7.351562 Z M 12 4.148438 L 6 6.289062 L 6 4.351562 L 12 2.210938 Z M 11 11 C 11.550781 11 12 11.449219 12 12 C 12 12.550781 11.550781 13 11 13 C 10.449219 13 10 12.550781 10 12 C 10 11.449219 10.449219 11 11 11 Z M 4 12 C 4.550781 12 5 12.449219 5 13 C 5 13.550781 4.550781 14 4 14 C 3.449219 14 3 13.550781 3 13 C 3 12.449219 3.449219 12 4 12 Z M 4 12" fill="#ddd"/></svg>

<svg xmlns="http://www.w3.org/2000/svg" width="16" height="16"><path d="M12 5.21v5.056A2.011 2.011 0 0011 10a1.999 1.999 0 100 4c1.105 0 2-.895 2-2V1.926a.8.8 0 00-1.07-.754L5.53 3.457A.8.8 0 005 4.211v7.055A2.011 2.011 0 004 11a1.999 1.999 0 100 4c1.105 0 2-.895 2-2V7.352zm0-1.062L6 6.29V4.352l6-2.141zM11 11c.55 0 1 .45 1 1s-.45 1-1 1-1-.45-1-1 .45-1 1-1zm-7 1c.55 0 1 .45 1 1s-.45 1-1 1-1-.45-1-1 .45-1 1-1zm0 0" fill="#ddd"/></svg>
